X:511
T: TABAK IST MEIN LEBEN
N: E1778
O: Europa, Mitteleuropa, Deutschland, Westfalen
R: Scherz - Lied, Tabak; Handwerksburschen - Lied
M: 4/4
L: 1/8
K: Bb
 | B3FD2F2 | B4B2
B2 | c3BA2B2 | c4c2d2 | c4c2
e2 | d2d2c2c2 | B4z2
d2 | f2d2B2A2 | G4G2
G2 | e2d2c2B2 | A4A2B2 | A4A2
e2 | d2d2c2c2 | B4z4

